material/.icons/material/douban.svg

<svg xmlns="http://www.w3.org/2000/svg" viewBox="0 0 24 24"><path d="M20 6H4V4h16v2m0 12v2H4v-2h3.33l-1.07-4H5V8h14v6h-1.26l-1.07 4H20M7 12h10v-2H7v2m2.4 6h5.2l1.07-4H8.33l1.07 4z"/></svg>

<?xml version="1.0" encoding="UTF-8"?><!DOCTYPE svg PUBLIC "-//W3C//DTD SVG 1.1//EN" "http://www.w3.org/Graphics/SVG/1.1/DTD/svg11.dtd"><svg xmlns="http://www.w3.org/2000/svg" xmlns:xlink="http://www.w3.org/1999/xlink" version="1.1" id="mdi-douban" width="24" height="24" viewBox="0 0 24 24"><path d="M20,6H4V4H20V6M20,18V20H4V18H7.33L6.26,14H5V8H19V14H17.74L16.67,18H20M7,12H17V10H7V12M9.4,18H14.6L15.67,14H8.33L9.4,18Z" /></svg>
